X:1
T:Title
%%score { ( 1 3 ) | ( 2 4 ) }
L:1/8
Q:1/4=100
M:4/4
K:D
V:1 treble nm="Grand Piano"
V:3 treble 
V:2 bass 
V:4 bass 
V:1
 [Fd]2 [Gd]2 [Fd]2 [Gc]>[GB] | [FA]2 [EG]2 F2 D2 | E2 E2 A2 A>B | c2 B2 z2 ^G,2 | %4
w: Adam~Geibel * * * *||||
 d2 [Gd]2 [Fd]2 [Gc]>[GB] | [FA]2 [EG]2 F2 D2 | A2 B2 c2 [Ee]>[Fd] | [Ec]2 [DB]2 [CA]4 | e6 z2 | %9
w: |||||
 d6 z2 | d6 z2 | B6 z2 | B2 B2 c2 c>c | [Fe]2 d2 c2 B2 | A2 d2 A2 F>G | F2 [CE]2 D4 |] %16
w: |||||||
V:2
 [D,A,]2 [D,B,]2 [D,A,]2 [D,B,]>[D,C] | [D,D]2 [C,A,]2 [D,A,D]2 [F,A,]2 | %2
 [A,C]2 [G,A,C]2 [F,A,D]2 [=F,A,D]>[F,A,D] | [E,A,E]2 [E,^G,D]2 A,2 z2 | %4
 [D,F,D]2 [D,B,]2 [D,A,]2 [D,B,]>[D,C] | [D,D]2 [C,A,]2 [D,A,D]2 [D,F,]2 | %6
 [F,A,D]2 [=F,A,D]2 [E,A,E]2 [C,A,]>[D,A,] | [E,A,]2 [E,^G,]2 [A,,A,]4 | %8
 [A,CG]2 [A,C]>[A,C] [A,C]2 z2 | [D,A,]2 [D,B,]>[D,B,] [D,A,]2 z2 | %10
 [D,A,]2 [D,A,]>[D,A,] [D,D]2 z2 | [G,DG]2 [G,D]>[G,D] [G,D]2 z2 | %12
 [G,B,D]2 [G,B,D]2 [F,^A,F]2 [F,A,F]>[F,A,F] | [B,,B,]2[K:treble] [B,F]2 [G,DA]2 [G,DG]2 | %14
 [F,A,D]2 [G,B,D]2 [F,A,D]2 [D,A,D]>[G,B,D] | [A,D]2 [A,,G,]2 [D,F,]4 |] %16
V:3
 x8 | x8 | x8 | z4 [CA]4 | x8 | x8 | x8 | x8 | z2 G>G G2 c>A | F2 G>G F2 z2 | F2 F>F F2 =c>A | %11
 z2 G>G G2 z2 | x8 | x8 | x8 | x8 |] %16
V:4
 x8 | x8 | x8 | z4 A,,4 | x8 | x8 | x8 | x8 | x8 | x8 | x8 | x8 | x8 | x2[K:treble] x6 | x8 | x8 |] %16

